svg/fluentui-system-icons/ic_fluent_people_28_regular.svg

<svg width="28" height="28" viewBox="0 0 28 28" fill="none" xmlns="http://www.w3.org/2000/svg">
<path d="M9.5 5C7.01472 5 5 7.01472 5 9.5C5 11.9853 7.01472 14 9.5 14C11.9853 14 14 11.9853 14 9.5C14 7.01472 11.9853 5 9.5 5ZM6.5 9.5C6.5 7.84315 7.84315 6.5 9.5 6.5C11.1569 6.5 12.5 7.84315 12.5 9.5C12.5 11.1569 11.1569 12.5 9.5 12.5C7.84315 12.5 6.5 11.1569 6.5 9.5ZM20 7C18.067 7 16.5 8.567 16.5 10.5C16.5 12.433 18.067 14 20 14C21.933 14 23.5 12.433 23.5 10.5C23.5 8.567 21.933 7 20 7ZM18 10.5C18 9.39543 18.8954 8.5 20 8.5C21.1046 8.5 22 9.39543 22 10.5C22 11.6046 21.1046 12.5 20 12.5C18.8954 12.5 18 11.6046 18 10.5ZM2 18.25C2 17.0074 3.00736 16 4.25 16H14.75C15.9926 16 17 17.0074 17 18.25L17 18.7524L17 18.7552L16.9999 18.7622L16.9996 18.781C16.9992 18.7958 16.9986 18.8149 16.9974 18.838C16.9951 18.8842 16.9907 18.9467 16.9825 19.0233C16.9662 19.1761 16.9343 19.3863 16.8721 19.635C16.748 20.1316 16.5005 20.791 16.0063 21.45C14.9918 22.8026 13.058 24 9.5 24C5.94201 24 4.00822 22.8026 2.99375 21.45C2.4995 20.791 2.252 20.1316 2.12786 19.635C2.06569 19.3863 2.03382 19.1761 2.01745 19.0233C2.00925 18.9467 2.00489 18.8842 2.00258 18.838C2.00143 18.8149 2.00078 18.7958 2.00043 18.781L2.00008 18.7622L2.00002 18.7552L2 18.7524L2 18.7512V18.25ZM3.5 18.7453L3.50071 18.7631C3.5017 18.7828 3.50393 18.8169 3.50892 18.8635C3.51891 18.9567 3.53978 19.098 3.58308 19.2712C3.66987 19.6184 3.84425 20.084 4.19375 20.55C4.86678 21.4474 6.30799 22.5 9.5 22.5C12.692 22.5 14.1332 21.4474 14.8063 20.55C15.1558 20.084 15.3301 19.6184 15.4169 19.2712C15.4602 19.098 15.4811 18.9567 15.4911 18.8635C15.4961 18.8169 15.4983 18.7828 15.4993 18.7631L15.5 18.7453V18.25C15.5 17.8358 15.1642 17.5 14.75 17.5H4.25C3.83579 17.5 3.5 17.8358 3.5 18.25V18.7453ZM17.0995 21.6202C17.8732 21.8574 18.8266 22 19.9985 22C22.7671 22 24.3163 21.2043 25.1567 20.2439C25.5683 19.7735 25.7792 19.2965 25.8865 18.9288C25.94 18.7453 25.9679 18.5886 25.9825 18.4719C25.9898 18.4135 25.9938 18.3648 25.996 18.3274C25.9971 18.3086 25.9977 18.2927 25.9981 18.2798L25.9984 18.2626L25.9985 18.2557L25.9985 18.2527L25.9985 18.2513C25.9985 18.2492 25.9985 18.25 25.9985 18.25C25.9985 17.0074 24.9912 16 23.7485 16H17.0938C17.4885 16.4113 17.7761 16.9263 17.9116 17.5H23.7485C24.1597 17.5 24.4936 17.8308 24.4985 18.2408C24.4981 18.2478 24.4969 18.2632 24.4941 18.2859C24.4882 18.3333 24.475 18.4109 24.4465 18.5087C24.3897 18.7035 24.2725 18.9765 24.0279 19.2561C23.5558 19.7957 22.48 20.5 19.9985 20.5C19.0568 20.5 18.3176 20.3986 17.7369 20.2432C17.6049 20.6574 17.4044 21.1321 17.0995 21.6202Z" fill="#212121"/>
</svg>

<svg xmlns="http://www.w3.org/2000/svg" width="28" height="28"><path d="M9.5 5a4.5 4.5 0 1 0 0 9 4.5 4.5 0 0 0 0-9Zm-3 4.5a3 3 0 1 1 6 0 3 3 0 0 1-6 0ZM20 7a3.5 3.5 0 1 0 0 7 3.5 3.5 0 0 0 0-7Zm-2 3.5a2 2 0 1 1 4 0 2 2 0 0 1-4 0ZM2 18.25A2.25 2.25 0 0 1 4.25 16h10.5A2.25 2.25 0 0 1 17 18.25v.531a2.236 2.236 0 0 1-.017.242 4.513 4.513 0 0 1-.11.612 5.088 5.088 0 0 1-.867 1.815C14.992 22.803 13.058 24 9.5 24c-3.558 0-5.492-1.197-6.506-2.55a5.088 5.088 0 0 1-.866-1.815 4.529 4.529 0 0 1-.125-.797A2.202 2.202 0 0 1 2 18.781v-.531Zm1.5.495v.018l.009.1c.01.094.03.235.074.408a3.6 3.6 0 0 0 .61 1.279c.674.897 2.115 1.95 5.307 1.95s4.633-1.053 5.306-1.95c.35-.466.524-.932.61-1.279a3.035 3.035 0 0 0 .083-.508l.001-.018v-.495a.75.75 0 0 0-.75-.75H4.25a.75.75 0 0 0-.75.75v.495Zm13.6 2.875c.773.237 1.727.38 2.898.38 2.77 0 4.318-.796 5.159-1.756a3.48 3.48 0 0 0 .73-1.315 2.95 2.95 0 0 0 .109-.602l.002-.047v-.03a2.25 2.25 0 0 0-2.25-2.25h-6.654c.394.411.682.926.818 1.5h5.837a.75.75 0 0 1 .75.74 1.45 1.45 0 0 1-.052.268 1.98 1.98 0 0 1-.42.748c-.471.54-1.547 1.244-4.029 1.244-.941 0-1.68-.101-2.261-.257a6.092 6.092 0 0 1-.637 1.377Z"/></svg>
